X: 17397
T: High Road To Linton, The
R: reel
M: 4/4
K: Amixolydian
ceef a2ae|f2fe a2ae|ceef a2ae|faec B2A2:|
|:ceeg fddf|ecce fBBd|ceeg fddf|ecac B2A2:|
|:a2a2 fefa|fefa ~f2ef|a2a2 fefa|1 ~B2ce ~f2ef:|2 ~B2ce ~f2ed||
|:ceeg fddf|ecce fBBd|ceeg fddf|ecac B2A2:|

